X: 133
T:S
R:Reel
M:4/4
L:1/8
Q:1/2=112
K:G
Bd|:gedB G2AB|cABG AGEG|DGBd g2fg|eaag fdef|
gedB G2AB|cABG AGEG|cABG AGEG|DGGF G2:|
Bd|g3a bgaf|gfed B2AG|EAAB cBAG|EAAB cdef|
g3a bgaf|gfed B2AB|cABG AGEG|DGGF G2:|
